X:1
T:Pavana
T:Pavana
T:PAP2019
Z:PAP2019
%%score 1 { 2 | 3 }
L:1/8
Q:1/4=55
M:2/4
K:Bb
V:1 treble nm="Flauta" snm="Fl."
V:2 treble nm="Piano"
V:3 bass 
V:1
"_SOL                        FA#                     LA     SIb                           RE'      DO'" G2 G^F | %1
 GA B2 | Bd cB | BA B2 :: B2 AA | GG ^F2 |"_RE               MI" D2 =E/^F/G | G^F G2!D.C.!!fine! :| %8
V:2
 [B,DG]2 [B,DG][CD^F] | [B,DG][CFA] [DFB]2 | [DFB]d [EGc]B | [D^FB]A [B,DGB]2 :: [DFB]2 [CFA]A | %5
 [B,EG]E [A,CD^F]2 | [G,B,D]2 [G,C=E]/^F/G | [A,DG][A,D^F] [B,DG]2 :| %8
V:3
 [G,,G,]2 [G,,G,] D, | [G,,G,] F, [B,,B,]2 | [B,,B,]2 [C,C]2 | [D,D] D,, [G,,G,]2 :: %4
 [B,,B,]2 F, D, | E,, [C,,C,] [D,,D,]2 | [G,,,G,,]2 [C,,C,] C, | [D,,D,] D, [G,,G,]2 :| %8

